X:3
T:Mazurka  CF 5- chords (align)
M:3/4
L:1/8
K:Cmaj%%MIDI gchordon
"G7""_f"f2"_d"d>G "_h"B2 | "C"e2c>EG2 | "G7""_h"B"_d"d d"_f"f f"_a"a | "C"geg2g2 | "G7""_a"a2"_f"f>"_h"B"_ d ="d2 | "C"e2c>EG2 | \
"G7""_h"B"_d"d "_a"ag "_f"f"_ ="B |
 "C"c2c2z2 :: "E7"e>f e>d c>B | "Am""_d"dc "_h"Bc"_a"A2 | "D7"d>e d>c B>"_ ="A | "G7"G2"C7"e4 | \
"F"f>AA2f2 | "C"eGG2"_ ="e2 |
 "G7""_d"d2"_h"B"_d"D "_f"F"_ a ="A | "C"Gc ce eg | "F"f>AA2f2 | "C"e>GG2"_ ="e2 | \
"G7""_d"d2"_h"BG "_f"f"_ ="B | "C"c2c2z2 :: [K:Fmaj] "F"c2c2c2 |
 A4F2 | cAd2c2 | "C7""_b"B2"_e"E2E2 | c2c2c2 | \
"_b"B4"_e"e2 | dc "_g"G3"_ b ="B | "F"Acf2f2 | "Bb""_d"d2"_b"Bf "_e"ef |
 "F"c2Af e"_ f ="f | "C7""_e"ed c2"_ b ="B2 | "F"Ad"_ ="c4 | \
"Bb""_d"d2"_b"Bf "_e"ef | "F"c2 Af e"_ ="f | "C7""_e"edc2"_b"B"_e"E | "F"F2F2z2 :: [K:Cmaj]
 "G7"G"_f"f ef"_h"B2 | "C"Ge "_es"^de"_ ="c2 | \
"G7""_h"B"_a"AG2"_ f ="F2 | "C"EAG2G2 | "G7"Gf efB2 | "C"Ge ^de"_ ="c2 | "G7""_h"B"_a"AG2"_f"f"_h"B | "C"c2c2z2 :| 

